X:1
T:Title
%%score { ( 1 3 ) | 2 }
L:1/8
M:6/8
K:F
V:1 treble nm="Grand Piano"
V:3 treble 
V:2 bass 
V:1
 z3 z2[Q:1/4=100] c | c>dc AFC | D>[CE][DF] A2 A | G>AG [EG]>[EA][EG] |[M:5/8] c-c- c3 |[M:1/8] c | %6
[M:3/4] c>d cA FC | D>[CE] [DF] [^CA]2 [CA] | [DG] [Dd]2 [EG] [Ec]2 |[M:5/8] [eg][ec']- [ec']3 | %10
[M:1/8] c |[M:3/4] c2 AA GF | c6 | c2 AA GF | c6 | c2 AA GF | [DF][DB] [Fd][df] [Ece][FBd] | %17
 [FAc]2 [CFA][B,EG] [A,F][B,EG] |[M:5/8] c-c- c3 |[M:1/8] c |[M:3/4] c>d cA FC | %21
 D>[CE] [DF] [^CA]2 [CA] | [DG] [Dd]2 [EG] [Ec]2 |[M:5/8] F-F- F3 |] %24
V:2
 z3 z2 [F,A,F] | [F,A,F]>[F,B,F][F,A,F] [F,CF][F,A,C][F,A,] | %2
 [B,,F,B,]>[B,,F,][B,,B,] [F,A,C]2[K:treble] [F,CF] | %3
 [G,=B,F]>[G,B,F][G,B,F][K:bass] [C,_B,]>[C,B,][B,,B,] |[M:5/8] [F,A,F]-[F,A,F]- [F,A,F]3 | %5
[M:1/8] [F,A,F] |[M:3/4] [F,A,F]>[F,B,F] [F,A,F][F,CF] [F,A,C][F,A,] | %7
 [B,,F,B,]>[B,,F,] [B,,D,] [A,,E,]2 [A,,E,] | [B,,G,] [B,,G,]2 [C,B,] [C,B,]2 | %9
[M:5/8][K:treble] [CB][CGB]- [CGB]3 |[M:1/8] [F,A,F] | %11
[M:3/4] [F,A,F]2[K:bass] [F,CF][F,CF] [F,B,C][F,A,C] | [C,B,]2 [C,B,] [C,B,]2 [C,B,] | %13
 [F,A,F]2 [F,CF][F,CF] [F,B,C][F,A,C] | [C,B,]2 [C,B,] [C,B,]2 [C,B,] | %15
 [F,A,F]2 [F,CF][F,CF] [F,B,C][F,A,C] | [B,,B,][B,,B,] [B,,B,][B,D] B,B, | F,2 F,C, C,C, | %18
[M:5/8] [F,A,F]2 [F,A,] [F,A,]2 |[M:1/8] [F,A,F] | %20
[M:3/4] [F,A,F]>[F,B,F] [F,A,F][F,CF] [F,A,C][F,A,] | [B,,F,B,]>[B,,F,] [B,,D,] [A,,E,]2 [A,,E,] | %22
 [B,,G,] [B,,G,]2 [C,B,] [C,B,]2 |[M:5/8] [F,A,]-[F,A,]- [F,A,]3 |] %24
V:3
 x6 | x6 | x6 | x6 |[M:5/8] x5 |[M:1/8] x |[M:3/4] x6 | x6 | x6 |[M:5/8] x5 |[M:1/8] x | %11
[M:3/4] x6 | E2 E E2 [Ec] | x6 | E2 E E2 [Ec] | x6 | x6 | x6 |[M:5/8] z2 F F2 |[M:1/8] x | %20
[M:3/4] x6 | x6 | x6 |[M:5/8] x5 |] %24

